X: 29418
T: Niel Gow's Lament For His Second Wife
R: jig
M: 6/8
K: Fmajor
[M:6/8]|:D/C/|"F"C>DF "Dm7"F>GF|"C/E"G"F"A"F/A"c "Bb"d2e/f/|"Dm7"c>AF "C/E"G>FG|"F"AFD "Gm7"D2"Bb/C"F/D/|
"F"C>DF "Dm7"F>GF|"C/E"G"F"A"F/A"c "Bb"f2e/d/|"F/A"cAF "Bb"D2C|"Bb/C"DFF "F"F2:|
"C"c/4d/4e/|"F"fa>f "C/E"gec|"Bb/D"d/c/d/e/"F/C"f "Bb"d/c/B/A/"F/A"G/F/|"Gm7"G>FG "Dm7"A>GF|"Bbma7"AFD "Gm7"D2"C"c/4d/4e/|
"F"fa>f "C/E"gec|"Bb/D"d/c/d/e/"F/C"f "Bb"d/c/B/A/"F/A"G/F/|"Gm7"G>FG "Dm7"A>GF|"Bb/C"DFF "F"F2"C"c/4d/4e/|
"F"fa>f "C/E"gec|"Bb/D"d/c/d/e/"F/C"f "Bb"d/c/B/A/G/F/|"F/A"AFcAfc "Bb"dcBAGF|"G7/B"AGG "C7sus4"G2F/D/|
"F"C>DF "Dm7"F>GF|"C/E"GA"F/Eb"c "Bb/D"f2e/d/|"F/C"cAF "Bb"D2"F/A"C|"Gm7"DF"Bb/C"F "F"F2||

